!!!CDT:
!!!PTL: Le Musiche del Cavalier Sigismondo D'India a una et due voci da cantarsi nel chitarrone, clavicembalo, arpa doppia et altri stromenti da corpo
!!!PPP: Venice
!!!PPR: Alessandro Vincenzi
!!!PDT: 1621
!!!RISM: I 33
!!!rime:
!!!AGN: Madrigal
!!!SCT: Tsg12066c
!!!SCA: Tsg12066c
!!!voices:
!!!COM: D'India, Sigismondo
!!!OTL: "Amico hai vinto; io ti perdon, perdona
**kern	**fb	**kern	**text
*part2	*part2	*part1	*part1
*staff2	*staff2	*staff1	*staff1
*I"Basso continuo	*	*I"Canto	*
*I'Bc	*	*I'C	*
*oclefF4	*	*oclefC1	*
*clefF4	*	*clefG2	*
*k[b-]	*	*k[b-]	*
*F:	*	*F:	*
*omet(C)	*	*omet(C)	*
*M4/4	*	*M4/4	*
=1	=	=	=
!	!	!LO:TX:a:t=Parole del Tasso. Prima parte.	!
1GG	.	4r	.
.	.	4bnX	"A-
.	.	4.bni	-mi-
.	.	8dd	-co hai
=2	=2	=2	=2
1D	.	2dd	vin-
.	.	[2e	-t'io
=3	=3	=3	=3
2GG	.	2.e]	.
2AA	11:#	.	.
.	.	8e	ti
.	.	8d	per-
=4	=4	=4	=4
1D	.	1d	-don,
=5	=5	=5	=5
1G	.	4r	.
.	.	4b-y	per-
.	.	[2b-y	-do-
=6	=6	=6	=6
1G	.	4b-]	.
.	.	8g	-na
.	.	8g	Tu an-
.	.	4g	-co-
.	.	4g	-ra,
=7	=7	=7	=7
1D	.	8r	.
.	.	8a	al
.	.	8f	cor-
.	.	8e	-po
.	.	8e	no
.	.	8d	che
.	.	[4d	nul-
=8	=8	=8	=8
2E-X	.	4d]	.
.	.	4c	-la
[2D	4:3	2d	pa-
=9	=9	=9	=9
2D]	.	2d	-ve,
2AA	6	4r	.
.	.	4cc	Al
=10	=10	=10	=10
1C	4:3	2.g	Al-
.	.	4g	-ma
=11	=11	=11	=11
1FF	.	1f	sì:
=12	=12	=12	=12
1FF	-	2r	.
.	.	2a-X	deh,
=13	=13	=13	=13
[1C	-	2r	.
.	.	[2ee-X	deh
=14	=14	=14	=14
2C]	.	4ee-]	.
.	.	8a	per
.	.	8a	lei
2D	11:#	4.a	pre-
.	.	8g	-ga e
=15	=15	=15	=15
2.D	.	2a	do-
.	.	4a	-na
4G	.	8r	.
.	.	8b-y	Bat-
=16	=16	=16	=16
2F	4:3	4.cc	-te-
.	.	8b-y	-smo a
2B-y	.	[2dd	me,
=17	=17	=17	=17
2F	.	8dd]	.
.	.	8a	ch'o-
.	.	8a	-gni
.	.	8b-y	mia
2E	.	8.cc	col-
.	.	16b-y	-pa
.	.	[4g	la-
=18	=18	=18	=18
2D	.	4g]	.
.	.	(<4f#X	-ve."
2GG	.	2g)	.
=19	=19	=19	=19
1C	.	4r	.
.	.	4e-X	In
.	.	4e-i	que-
.	.	4e-i	-ste
=20	=20	=20	=20
1C	.	4e-i	vo-
.	.	4e-i	-ci
.	.	8e-i	lan-
.	.	8e-i	-gui-
.	.	8d	-de
.	.	8c	ri-
=21	=21	=21	=21
1AA	6	4f	-suo-
.	.	4f	-na
.	.	8r	.
.	.	8f	Un
.	.	8enXi	non
.	.	8d	so
=22	=22	=22	=22
2BB-y	.	4d	che
.	.	8r	.
.	.	8g	di
2BBnX	.	8g	fle-
.	.	8f	-bi-
.	.	8f	-le e
.	.	8e	so-
=23	=23	=23	=23
2C	.	[1e	-a-
2GG	.	.	.
=24	=24	=24	=24
1AA	11:#	2e]	.
.	.	2e	-ve
=25	=25	=25	=25
1C	.	8r	.
.	.	8cc	Ch'al
.	.	8b-y	cor
.	.	8g	gli
.	.	8.a	ser-
.	.	16b-y	-pe, ed
.	.	8b-y	o-
.	.	8b-y	-gni
=26	=26	=26	=26
2D	.	4.b-y	sde-
.	.	16aL	.
.	.	16gJ	.
2E	.	[2cc	.
=27	=27	=27	=27
1A	.	4cc]	.
.	.	4b-y	-gno am-
.	.	4.g	-mor-
.	.	(<8f#X	-za,
=28	=28	=28	=28
1G	4:3	1g)	.
=29	=29	=29	=29
1C	-	4r	.
.	.	4ee-X	E
.	.	[2ee-i	gl'oc-
=30	=30	=30	=30
1F	.	4ee-]	.
.	.	4a	-chi a
.	.	4a	la-
.	.	4a	-cri-
=31	=31	=31	=31
2F	.	2a	-mar
2D	.	8r	.
.	.	8dd	gl'in-
.	.	[4ff	-vo-
=32	=32	=32	=32
1G	.	8ff]	.
.	.	8bnX	-glia e
.	.	2cc	sfor-
.	.	(>4bni	-za,
=33	=33	=33	=33
1C	.	1cc)	.
=34	=34	=34	=34
2D	.	8r	.
.	.	8b-y	gl'in-
.	.	2b-y	-vo-
2C	.	.	.
.	.	4ee-X	-glia
=35	=35	=35	=35
1D	.	4f#X	e
.	.	2g	sfor-
.	.	4f#X	.
=36	=36	=36	=36
1GGl	.	1gl	-za.
==	==	==	==
*-	*-	*-	*-
!!!system-decoration: [*]
!!!RDF**kern: > = above
!!!RDF**kern: < = below
!!!RDF**kern: i = editorial accidental
!!!RDF**kern: l = terminal long
!!!ENC: Emiliano Ricciardi
!!!END:
!!!EED: Ricciardi, Emiliano
!!!EEV: 2020/01/19
!!!YEC: Copyright 2018 Emiliano Ricciardi, All Rights Reserved
!!!ONB: Translated from MusicXML on 2020/01/19
!!@@BEGIN:	VERSEDATA
!!@CATALOGNUM:	Tsg12066
!!@LAST_MODIFIED: 2020/07/18
!!@TITLE:		Amico hai vinto; io ti perdon, perdona
!!@CANTO:		XII
!!@OTTAVA:	66
!!@MANUSRC:	G-Al, G-Am, G-Au, G-Br<sub>1</sub>, G-Br<sub>2</sub>, G-Cv, G-Es<sub>1</sub>, G-Es<sub>2</sub>, G-Es<sub>3</sub>, G-F, G-Fr, G-Fr<sub>1</sub>, G-Fr<sub>2</sub>, G-Mc, G-Mc<sub>1</sub>, G-Mg, G-Mr, G-Mt, G-N, G-Ol
!!@PRINTSRC:	G-1580CM, G-1581B, G-1581CV, G-1581R, G-1581MR, G-1581P, G-1581V, G-1581V<sub>bis</sub>, G-1582C, G-1582M, G-1582MC, G-1582P, G-1582SC, G-1582SC<sub>bis</sub>, G-1583S, G-1584O, G-1584S, G-1585C, G-1585S, G-1588S, G-1589S, G-1590B, G-1590S, G-1592S, G-1593S, G-1594C, G-1595C, G-1597C, G-1598C, G-1599C, G-1600C, G-1600S, G-1601C, G-1601R, G-1602C, G-1604C, G-1604Cl, G-1604F, G-1604P, G-1606B, G-1606B<sub>bis</sub>, G-1606L, G-1607ZR, G-1608DP, G-1609GC, G-1610M, G-1611S, G-1611V, G-1612P, G-1613M, G-1613P, G-1613V, G-1615P, G-1616M, G-1617P, G-1619B, G-1619V, G-1620M, G-1620S, G-1621R, G-1624I, G-1624MT, G-1625C, G-1625S, G-1625SS, G-1626C, G-1626Co, G-1627M, G-1628T, G-1628Tu, G-1630L, G-1630T, G-1632FT, G-1639CF, G-1642M, G-1643I, G-1644P, G-1644S
!!@@BEGIN:	VERSES
!!@ABOUTIT:
!!@ABOUTEN:
!!@EDITOR:	Angelo Solerti
!!@EDITION_TITLE: Gerusalemme liberata. Poema eroico di Torquato Tasso. Edizione critica sui manoscritti e le prime stampe.
!!@EDITION_LOC:	Florence
!!@EDITION_PUB:	G. Barbera
!!@EDITION_DATE:  1895
!!@EDITION_VOL:
!!@EDITION_PAGE:
!!@TRANSLATOR:	Emiliano Ricciardi and Amyrose McCue Gill
!!@VERSE:
!!	"Amico hai vinto; io ti perdon, perdona
!!	Tu ancora, al corpo no che nulla pave,
!!	All’alma sì: deh per lei prega, e dona
!!	Battesmo a me, ch’ogni mia colpa lave."
!!	In queste voci languide risuona
!!	Un non so che di flebile e soave
!!	Ch’al cor gli scende, ed ogni sdegno ammorza,
!!	E gli occhi a lagrimar gli invoglia e sforza.
!!@MVERSE_DATE: 20230824
!!@MVERSE:
!!	“A|mi||co_hai vin||to;_io ti per|don||, per|do||na		=a*
!!	Tu_an|co||ra,_al cor||po no che nul||la pa||ve,			=b
!!	All’al||ma sì: deh per lei pre||ga,_e do||na			=a*
!!	Bat|te||smo_a me, ch’o||gni mia col||pa la||ve.”		=b
!!	In que||ste vo||ci lan|gui||de ri|suo||na			=a*
!!	Un non so che di fle||bi|le_e so|a||ve				=b*
!!	Ch’al cor gli scen||de,_ed o||gni sde||gno_am|mor||za,		=c
!!	E gli_oc||chi_a la|gri|mar|| gli_in|vo||glia_e sfor||za.	=c
!!@TVERSE:
!!	"My friend, you have won; I pardon you: may you pardon
!!	Too, my body no, since it fears naught,
!!	My soul, yes: indeed, may you pray for her, and give
!!	Me baptism, that my every fault wash away."
!!	In these weakened tones resounds
!!	Something, I know not what, that soft and sweet
!!	Sinks into his heart, and every scorn extinguishes,
!!	And his eyes tempt and require him to weep.
!!@@END:		VERSES
!!@OTHER_CRIT_ED:  Torquato Tasso, <i>Gerusalemme liberata</i>, ed. Lanfranco Caretti, 2 vols. (Bari: Laterza, 1967).
!!@ATTRIBUTION_ABOUT:
!!@DATING:	mid-1560s through 1570s
!!@DEDICATEE:	Duke Alfonso II d'Este
!!@COMMENTARY:
!!@@END:		VERSEDATA
!!@@BEGIN: SETTING
!!@CATALOGNUM:	Tsg12066c
!!@CANTO:		XII
!!@OTTAVA:	66
!!@TITLE:	"Amico hai vinto; io ti perdon, perdona
!!@SETTINGTITLE: "Amico hai vint'io ti perdon, perdona
!!@COMPOSER:	D'India, Sigismondo
!!@PARTS:		1 of 3
!!@PRINCEPSTITLE:	Le Musiche del Cavalier Sigismondo D'India a una et due voci da cantarsi nel chitarrone, clavicembalo, arpa doppia et altri stromenti da corpo
!!@PRINCEPSLOC:	Venice
!!@NORMLOC:	Venice
!!@NORMPUB:	Alessandro Vincenzi
!!@NORMPUBSHORT:	A. Vincenzi
!!@PRINCEPSPUB:	Alessandro Vincenti
!!@PRINCEPSYEAR:	1621
!!@PRINCEPSRISM:	I 33
!!@OVOICES:	1+bc
!!@EXTANTVOICES:	1+bc
!!@OMENSURATION:	C
!!@OCLEFS:	C1,F4
!!@OTIME:		
!!@OKEYSIG:	b-
!!@FINAL:		(G)G
!!@TIMPEDITOR:	Ricciardi, Emiliano
!!@REPRINTS:	
!!@@END: SETTING
